X:1
T:Listen to the voice of love
T:Listen to the voice of love
T:James Hook
C:James Hook
L:1/8
M:2/4
K:D
V:1 treble 
V:1
 A | A<F G<E | D3 d | dc BA | d3 e | f>d dB | ec cA | B<A B>c | A3 A | Ad fd | c/d/e z A | Ad fd | %12
 c/d/e z A | d3 c | cB BA | AG GF | FE z A | A<F G<E | D3 d | dc BA | g3 e | d>g d<B | %22
 A/B/c/d/ c/d/D/G/ | F2 E2 | D3 || %25

